X: 23222
T: Leaping Salmon, The
R: reel
M: 4/4
K: Dmajor
A2 AF ABde|fede fe e2|a2 ef dedB|AFDE FE E2|
A2 AF ABde|fede fe e2|a2 ef dedB|AFEA FD D2:|
a2 ab afbf|afef dB B2|(3ABA FA ABde|fede fe e2|
a2 ab afbf|afef dB B2|(3ABA FA ABde|AFEA FD D2:|

